Страховая/img/svg/baby.svg

<svg width="107" height="99" viewBox="0 0 107 99" fill="none" xmlns="http://www.w3.org/2000/svg">
<path d="M104.053 61.0769C97.3859 84.2885 79.0405 99 53.4236 99C27.8067 99 9 76.5811 9 50.9423C9 25.3036 53.9383 14 79.5552 14C105.172 14 111.566 34.9231 104.053 61.0769Z" fill="#FFF3DB"/>
<path d="M78.3594 63.75H67.7344V47.8125C67.73 43.9392 66.1894 40.2258 63.4506 37.487C60.7117 34.7481 56.9983 33.2075 53.125 33.2031H39.7709C40.1515 32.2242 40.2665 31.1621 40.1044 30.1244C39.9423 29.0867 39.5087 28.1103 38.8477 27.2941V26.3965C38.8477 21.4651 36.8887 16.7357 33.4017 13.2487C29.9147 9.76171 25.1853 7.80273 20.2539 7.80273C15.3226 7.80273 10.5932 9.76171 7.10617 13.2487C3.61917 16.7357 1.66019 21.4651 1.66019 26.3965V33.0371C1.65358 36.71 2.73739 40.3022 4.77429 43.3585C6.81119 46.4148 9.7095 48.7977 13.102 50.2053C13.1613 50.23 13.2217 50.2518 13.2813 50.2758V59.3189L6.71752 67.9695C5.50949 68.5027 4.48248 69.3756 3.76146 70.4819C3.04043 71.5882 2.65647 72.8802 2.65628 74.2007V75.7031C2.65628 76.0554 2.79621 76.3932 3.04528 76.6423C3.29435 76.8913 3.63216 77.0312 3.98441 77.0312H13.2813C13.478 77.0312 13.6722 76.9875 13.85 76.9033C14.0277 76.8191 14.1845 76.6964 14.3091 76.5442L26.2622 61.9348C26.4564 61.6975 26.5625 61.4004 26.5625 61.0938V60.3467C27.2766 60.8234 28.0203 61.2539 28.7893 61.6356L23.983 67.9706C22.7773 68.5069 21.7525 69.3804 21.0319 70.4858C20.3114 71.5913 19.9259 72.8815 19.9219 74.201V75.7031C19.9219 76.0554 20.0618 76.3932 20.3109 76.6423C20.56 76.8913 20.8978 77.0312 21.25 77.0312H30.5469C30.7461 77.0313 30.9427 76.9866 31.1222 76.9004C31.3017 76.8141 31.4595 76.6887 31.584 76.5332L41.8106 63.75H43.6892L43.2209 68.4373C43.0959 69.6848 43.2729 70.944 43.7369 72.1087C44.2009 73.2734 44.9383 74.3094 45.8869 75.1291C46.8355 75.9489 47.9674 76.5284 49.187 76.8188C50.4066 77.1091 51.6782 77.1018 52.8944 76.7973L56.0808 76.0005C57.044 76.5324 58.1039 76.8667 59.198 76.9836C60.2922 77.1004 61.3987 76.9976 62.4526 76.6811L68.2823 74.9335L68.516 75.2843C68.838 75.7673 69.2631 76.1728 69.7608 76.4716C70.2585 76.7704 70.8162 76.955 71.3939 77.0122C71.9715 77.0694 72.5547 76.9977 73.1013 76.8022C73.6479 76.6067 74.1442 76.2924 74.5547 75.8819C74.7611 75.6752 74.944 75.4462 75.1 75.1993L75.1566 75.2841C75.6239 75.9844 76.3039 76.5158 77.0964 76.7999C77.8889 77.084 78.7517 77.1056 79.5574 76.8616C80.3631 76.6177 81.069 76.121 81.5707 75.445C82.0725 74.7691 82.3435 73.9496 82.3438 73.1078V67.7344C82.3426 66.678 81.9224 65.6653 81.1754 64.9184C80.4285 64.1714 79.4157 63.7512 78.3594 63.75ZM65.0782 47.8125V49.848C63.9327 48.8205 62.5142 48.1469 60.994 47.9086C59.4738 47.6702 57.9172 47.8774 56.5123 48.505C55.1073 49.1326 53.9143 50.1539 53.0775 51.4451C52.2407 52.7364 51.7959 54.2425 51.7969 55.7812V61.0938H49.1407V35.8594H53.125C56.2941 35.8629 59.3324 37.1234 61.5732 39.3643C63.8141 41.6052 65.0746 44.6434 65.0782 47.8125ZM4.31644 33.0371V26.3965C4.31802 22.2569 5.93018 18.2804 8.81173 15.3085C11.6933 12.3365 15.6181 10.6023 19.7556 10.4729C23.8932 10.3435 27.9187 11.8289 30.9804 14.615C34.042 17.401 35.8996 21.269 36.1599 25.4004C35.5296 25.1805 34.8668 25.0682 34.1992 25.0684H33.5352V27.7246H34.1992C35.0798 27.7246 35.9244 28.0744 36.5471 28.6971C37.1697 29.3198 37.5196 30.1643 37.5196 31.0449C37.5196 31.9255 37.1697 32.7701 36.5471 33.3927C35.9244 34.0154 35.0798 34.3652 34.1992 34.3652H33.5352V37.0215H34.1992C34.7178 37.0215 35.2341 36.9539 35.7352 36.8204C34.844 40.4664 32.6948 43.681 29.6661 45.898C26.6375 48.1149 22.9237 49.192 19.1788 48.9396C19.1576 48.9371 19.1362 48.9349 19.1144 48.9336C15.0933 48.6505 11.3294 46.8521 8.58277 43.9015C5.83614 40.951 4.3114 37.0682 4.31644 33.0371ZM12.6519 74.375H5.31253V74.2007C5.31266 73.3534 5.57181 72.5264 6.05524 71.8306C6.53867 71.1348 7.22327 70.6034 8.01726 70.3076C8.25404 70.2199 8.46087 70.0664 8.61342 69.8652L15.6674 60.5683C15.8426 60.3374 15.9375 60.0555 15.9375 59.7656V51.1268C16.8979 51.3548 17.875 51.5056 18.8594 51.5779C18.8825 51.5807 18.9061 51.5829 18.9295 51.5845C19.0007 51.5895 19.0717 51.5915 19.143 51.5957L20.0154 53.1949C21.0377 55.0687 22.351 56.7684 23.9063 58.2305V60.6196L12.6519 74.375ZM39.8438 61.956L29.9086 74.375H22.5782V74.201C22.5806 73.3541 22.8408 72.5279 23.3242 71.8325C23.8076 71.137 24.4912 70.6051 25.2842 70.3076C25.5206 70.2197 25.727 70.0663 25.8794 69.8654L32.9329 60.5685C33.1082 60.3375 33.2031 60.0556 33.2032 59.7656V53.125H30.5469V59.3189L30.4307 59.4729C26.9939 57.8921 24.1593 55.2442 22.3484 51.9229L22.1362 51.5339C22.4143 51.5057 22.6907 51.4735 22.963 51.4328C26.8968 50.8539 30.5414 49.029 33.3616 46.226C36.1818 43.423 38.029 39.7896 38.6319 35.8594H46.4844V61.0938H42.5V53.125H39.8438V61.956ZM52.2481 74.2209C51.4453 74.4214 50.606 74.4259 49.8011 74.234C48.9962 74.0421 48.2493 73.6594 47.6233 73.1183C46.9973 72.5771 46.5106 71.8933 46.2044 71.1246C45.8981 70.3559 45.7812 69.5248 45.8635 68.7014L46.3582 63.75H51.7969V68.7542C51.7956 70.6182 52.4268 72.4275 53.5872 73.8863L52.2481 74.2209ZM71.7802 74.375C71.5026 74.3747 71.2327 74.2831 71.0124 74.1142L72.9752 73.5253C72.8888 73.7735 72.7273 73.9887 72.5132 74.141C72.299 74.2932 72.0427 74.375 71.7799 74.375H71.7802ZM79.6875 73.1078C79.6875 73.3798 79.6 73.6445 79.438 73.8629C79.2759 74.0813 79.0478 74.2418 78.7875 74.3206C78.5272 74.3994 78.2485 74.3924 77.9925 74.3006C77.7365 74.2087 77.5168 74.037 77.366 73.8107L75.48 70.982C75.3222 70.7453 75.0926 70.5655 74.825 70.4691C74.5573 70.3727 74.2658 70.3648 73.9934 70.4466L61.6889 74.1379C60.8497 74.3897 59.9631 74.4418 59.1002 74.29C58.2372 74.1382 57.4216 73.7868 56.7186 73.2637C56.0156 72.7407 55.4447 72.0605 55.0513 71.2775C54.658 70.4945 54.4531 69.6304 54.4532 68.7542V55.7812C54.4532 54.3723 55.0129 53.021 56.0092 52.0247C57.0054 51.0285 58.3567 50.4688 59.7657 50.4688C61.1746 50.4688 62.5259 51.0285 63.5222 52.0247C64.5184 53.021 65.0782 54.3723 65.0782 55.7812V65.0781C65.0782 65.4304 65.2181 65.7682 65.4672 66.0173C65.7162 66.2663 66.054 66.4062 66.4063 66.4062H78.3594C78.7115 66.4066 79.0491 66.5467 79.2981 66.7957C79.5471 67.0447 79.6871 67.3823 79.6875 67.7344V73.1078Z" fill="#D0935A"/>
<path d="M9.62891 35.6934C11.0959 35.6934 12.2852 34.5041 12.2852 33.0371C12.2852 31.5701 11.0959 30.3809 9.62891 30.3809C8.1619 30.3809 6.97266 31.5701 6.97266 33.0371C6.97266 34.5041 8.1619 35.6934 9.62891 35.6934Z" fill="#D0935A"/>
<path d="M25.5664 35.6934C27.0334 35.6934 28.2227 34.5041 28.2227 33.0371C28.2227 31.5701 27.0334 30.3809 25.5664 30.3809C24.0994 30.3809 22.9102 31.5701 22.9102 33.0371C22.9102 34.5041 24.0994 35.6934 25.5664 35.6934Z" fill="#D0935A"/>
<path d="M17.5977 42.334C18.654 42.3328 19.6668 41.9126 20.4137 41.1657C21.1607 40.4187 21.5808 39.406 21.582 38.3496H18.9258C18.9258 38.7019 18.7859 39.0397 18.5368 39.2887C18.2877 39.5378 17.9499 39.6777 17.5977 39.6777C17.2454 39.6777 16.9076 39.5378 16.6585 39.2887C16.4095 39.0397 16.2695 38.7019 16.2695 38.3496H13.6133C13.6145 39.406 14.0346 40.4187 14.7816 41.1657C15.5285 41.9126 16.5413 42.3328 17.5977 42.334Z" fill="#D0935A"/>
<path d="M17.6131 26.3115C17.8338 26.3945 18.0726 26.4173 18.3049 26.3775C18.5373 26.3377 18.7549 26.2367 18.9354 26.085C19.1158 25.9333 19.2527 25.7363 19.3318 25.5142C19.4109 25.2921 19.4295 25.053 19.3857 24.8213L19.1674 23.6684C19.0426 23.0659 19.0495 22.4437 19.1878 21.8442C19.326 21.2447 19.5922 20.6822 19.9682 20.1953C20.3277 19.7333 20.783 19.3545 21.3027 19.0849C21.8224 18.8154 22.3943 18.6615 22.9791 18.6338L22.828 15.982C21.8666 16.0346 20.9276 16.2917 20.0735 16.7362C19.2194 17.1807 18.4701 17.8023 17.8754 18.5596C16.9479 19.7566 16.4403 21.2258 16.4311 22.7402C16.0362 22.4136 15.716 22.0059 15.4924 21.5448C14.8627 20.3006 14.7654 18.8899 15.2386 17.8636L12.8262 16.7513C12.0096 18.5232 12.1203 20.7632 13.1222 22.7445C14.2051 24.8844 15.9345 25.68 17.6131 26.3115Z" fill="#D0935A"/>
<path d="M104.053 61.0769C97.3859 84.2885 79.0405 99 53.4236 99C27.8067 99 9 76.5811 9 50.9423C9 25.3036 53.9383 14 79.5552 14C105.172 14 111.566 34.9231 104.053 61.0769Z" fill="#FFF3DB"/>
<path d="M78.3594 63.75H67.7344V47.8125C67.73 43.9392 66.1894 40.2258 63.4506 37.487C60.7117 34.7481 56.9983 33.2075 53.125 33.2031H39.7709C40.1515 32.2242 40.2665 31.1621 40.1044 30.1244C39.9423 29.0867 39.5087 28.1103 38.8477 27.2941V26.3965C38.8477 21.4651 36.8887 16.7357 33.4017 13.2487C29.9147 9.76171 25.1853 7.80273 20.2539 7.80273C15.3226 7.80273 10.5932 9.76171 7.10617 13.2487C3.61917 16.7357 1.66019 21.4651 1.66019 26.3965V33.0371C1.65358 36.71 2.73739 40.3022 4.77429 43.3585C6.81119 46.4148 9.7095 48.7977 13.102 50.2053C13.1613 50.23 13.2217 50.2518 13.2813 50.2758V59.3189L6.71752 67.9695C5.50949 68.5027 4.48248 69.3756 3.76146 70.4819C3.04043 71.5882 2.65647 72.8802 2.65628 74.2007V75.7031C2.65628 76.0554 2.79621 76.3932 3.04528 76.6423C3.29435 76.8913 3.63216 77.0312 3.98441 77.0312H13.2813C13.478 77.0312 13.6722 76.9875 13.85 76.9033C14.0277 76.8191 14.1845 76.6964 14.3091 76.5442L26.2622 61.9348C26.4564 61.6975 26.5625 61.4004 26.5625 61.0938V60.3467C27.2766 60.8234 28.0203 61.2539 28.7893 61.6356L23.983 67.9706C22.7773 68.5069 21.7525 69.3804 21.0319 70.4858C20.3114 71.5913 19.9259 72.8815 19.9219 74.201V75.7031C19.9219 76.0554 20.0618 76.3932 20.3109 76.6423C20.56 76.8913 20.8978 77.0312 21.25 77.0312H30.5469C30.7461 77.0313 30.9427 76.9866 31.1222 76.9004C31.3017 76.8141 31.4595 76.6887 31.584 76.5332L41.8106 63.75H43.6892L43.2209 68.4373C43.0959 69.6848 43.2729 70.944 43.7369 72.1087C44.2009 73.2734 44.9383 74.3094 45.8869 75.1291C46.8355 75.9489 47.9674 76.5284 49.187 76.8188C50.4066 77.1091 51.6782 77.1018 52.8944 76.7973L56.0808 76.0005C57.044 76.5324 58.1039 76.8667 59.198 76.9836C60.2922 77.1004 61.3987 76.9976 62.4526 76.6811L68.2823 74.9335L68.516 75.2843C68.838 75.7673 69.2631 76.1728 69.7608 76.4716C70.2585 76.7704 70.8162 76.955 71.3939 77.0122C71.9715 77.0694 72.5547 76.9977 73.1013 76.8022C73.6479 76.6067 74.1442 76.2924 74.5547 75.8819C74.7611 75.6752 74.944 75.4462 75.1 75.1993L75.1566 75.2841C75.6239 75.9844 76.3039 76.5158 77.0964 76.7999C77.8889 77.084 78.7517 77.1056 79.5574 76.8616C80.3631 76.6177 81.069 76.121 81.5707 75.445C82.0725 74.7691 82.3435 73.9496 82.3438 73.1078V67.7344C82.3426 66.678 81.9224 65.6653 81.1754 64.9184C80.4285 64.1714 79.4157 63.7512 78.3594 63.75ZM65.0782 47.8125V49.848C63.9327 48.8205 62.5142 48.1469 60.994 47.9086C59.4738 47.6702 57.9172 47.8774 56.5123 48.505C55.1073 49.1326 53.9143 50.1539 53.0775 51.4451C52.2407 52.7364 51.7959 54.2425 51.7969 55.7812V61.0938H49.1407V35.8594H53.125C56.2941 35.8629 59.3324 37.1234 61.5732 39.3643C63.8141 41.6052 65.0746 44.6434 65.0782 47.8125ZM4.31644 33.0371V26.3965C4.31802 22.2569 5.93018 18.2804 8.81173 15.3085C11.6933 12.3365 15.6181 10.6023 19.7556 10.4729C23.8932 10.3435 27.9187 11.8289 30.9804 14.615C34.042 17.401 35.8996 21.269 36.1599 25.4004C35.5296 25.1805 34.8668 25.0682 34.1992 25.0684H33.5352V27.7246H34.1992C35.0798 27.7246 35.9244 28.0744 36.5471 28.6971C37.1697 29.3198 37.5196 30.1643 37.5196 31.0449C37.5196 31.9255 37.1697 32.7701 36.5471 33.3927C35.9244 34.0154 35.0798 34.3652 34.1992 34.3652H33.5352V37.0215H34.1992C34.7178 37.0215 35.2341 36.9539 35.7352 36.8204C34.844 40.4664 32.6948 43.681 29.6661 45.898C26.6375 48.1149 22.9237 49.192 19.1788 48.9396C19.1576 48.9371 19.1362 48.9349 19.1144 48.9336C15.0933 48.6505 11.3294 46.8521 8.58277 43.9015C5.83614 40.951 4.3114 37.0682 4.31644 33.0371ZM12.6519 74.375H5.31253V74.2007C5.31266 73.3534 5.57181 72.5264 6.05524 71.8306C6.53867 71.1348 7.22327 70.6034 8.01726 70.3076C8.25404 70.2199 8.46087 70.0664 8.61342 69.8652L15.6674 60.5683C15.8426 60.3374 15.9375 60.0555 15.9375 59.7656V51.1268C16.8979 51.3548 17.875 51.5056 18.8594 51.5779C18.8825 51.5807 18.9061 51.5829 18.9295 51.5845C19.0007 51.5895 19.0717 51.5915 19.143 51.5957L20.0154 53.1949C21.0377 55.0687 22.351 56.7684 23.9063 58.2305V60.6196L12.6519 74.375ZM39.8438 61.956L29.9086 74.375H22.5782V74.201C22.5806 73.3541 22.8408 72.5279 23.3242 71.8325C23.8076 71.137 24.4912 70.6051 25.2842 70.3076C25.5206 70.2197 25.727 70.0663 25.8794 69.8654L32.9329 60.5685C33.1082 60.3375 33.2031 60.0556 33.2032 59.7656V53.125H30.5469V59.3189L30.4307 59.4729C26.9939 57.8921 24.1593 55.2442 22.3484 51.9229L22.1362 51.5339C22.4143 51.5057 22.6907 51.4735 22.963 51.4328C26.8968 50.8539 30.5414 49.029 33.3616 46.226C36.1818 43.423 38.029 39.7896 38.6319 35.8594H46.4844V61.0938H42.5V53.125H39.8438V61.956ZM52.2481 74.2209C51.4453 74.4214 50.606 74.4259 49.8011 74.234C48.9962 74.0421 48.2493 73.6594 47.6233 73.1183C46.9973 72.5771 46.5106 71.8933 46.2044 71.1246C45.8981 70.3559 45.7812 69.5248 45.8635 68.7014L46.3582 63.75H51.7969V68.7542C51.7956 70.6182 52.4268 72.4275 53.5872 73.8863L52.2481 74.2209ZM71.7802 74.375C71.5026 74.3747 71.2327 74.2831 71.0124 74.1142L72.9752 73.5253C72.8888 73.7735 72.7273 73.9887 72.5132 74.141C72.299 74.2932 72.0427 74.375 71.7799 74.375H71.7802ZM79.6875 73.1078C79.6875 73.3798 79.6 73.6445 79.438 73.8629C79.2759 74.0813 79.0478 74.2418 78.7875 74.3206C78.5272 74.3994 78.2485 74.3924 77.9925 74.3006C77.7365 74.2087 77.5168 74.037 77.366 73.8107L75.48 70.982C75.3222 70.7453 75.0926 70.5655 74.825 70.4691C74.5573 70.3727 74.2658 70.3648 73.9934 70.4466L61.6889 74.1379C60.8497 74.3897 59.9631 74.4418 59.1002 74.29C58.2372 74.1382 57.4216 73.7868 56.7186 73.2637C56.0156 72.7407 55.4447 72.0605 55.0513 71.2775C54.658 70.4945 54.4531 69.6304 54.4532 68.7542V55.7812C54.4532 54.3723 55.0129 53.021 56.0092 52.0247C57.0054 51.0285 58.3567 50.4688 59.7657 50.4688C61.1746 50.4688 62.5259 51.0285 63.5222 52.0247C64.5184 53.021 65.0782 54.3723 65.0782 55.7812V65.0781C65.0782 65.4304 65.2181 65.7682 65.4672 66.0173C65.7162 66.2663 66.054 66.4062 66.4063 66.4062H78.3594C78.7115 66.4066 79.0491 66.5467 79.2981 66.7957C79.5471 67.0447 79.6871 67.3823 79.6875 67.7344V73.1078Z" fill="#D0935A"/>
<path d="M9.62891 35.6934C11.0959 35.6934 12.2852 34.5041 12.2852 33.0371C12.2852 31.5701 11.0959 30.3809 9.62891 30.3809C8.1619 30.3809 6.97266 31.5701 6.97266 33.0371C6.97266 34.5041 8.1619 35.6934 9.62891 35.6934Z" fill="#D0935A"/>
<path d="M25.5664 35.6934C27.0334 35.6934 28.2227 34.5041 28.2227 33.0371C28.2227 31.5701 27.0334 30.3809 25.5664 30.3809C24.0994 30.3809 22.9102 31.5701 22.9102 33.0371C22.9102 34.5041 24.0994 35.6934 25.5664 35.6934Z" fill="#D0935A"/>
<path d="M17.5977 42.334C18.654 42.3328 19.6668 41.9126 20.4137 41.1657C21.1607 40.4187 21.5808 39.406 21.582 38.3496H18.9258C18.9258 38.7019 18.7859 39.0397 18.5368 39.2887C18.2877 39.5378 17.9499 39.6777 17.5977 39.6777C17.2454 39.6777 16.9076 39.5378 16.6585 39.2887C16.4095 39.0397 16.2695 38.7019 16.2695 38.3496H13.6133C13.6145 39.406 14.0346 40.4187 14.7816 41.1657C15.5285 41.9126 16.5413 42.3328 17.5977 42.334Z" fill="#D0935A"/>
<path d="M17.6131 26.3115C17.8338 26.3945 18.0726 26.4173 18.3049 26.3775C18.5373 26.3377 18.7549 26.2367 18.9354 26.085C19.1158 25.9333 19.2527 25.7363 19.3318 25.5142C19.4109 25.2921 19.4295 25.053 19.3857 24.8213L19.1674 23.6684C19.0426 23.0659 19.0495 22.4437 19.1878 21.8442C19.326 21.2447 19.5922 20.6822 19.9682 20.1953C20.3277 19.7333 20.783 19.3545 21.3027 19.0849C21.8224 18.8154 22.3943 18.6615 22.9791 18.6338L22.828 15.982C21.8666 16.0346 20.9276 16.2917 20.0735 16.7362C19.2194 17.1807 18.4701 17.8023 17.8754 18.5596C16.9479 19.7566 16.4403 21.2258 16.4311 22.7402C16.0362 22.4136 15.716 22.0059 15.4924 21.5448C14.8627 20.3006 14.7654 18.8899 15.2386 17.8636L12.8262 16.7513C12.0096 18.5232 12.1203 20.7632 13.1222 22.7445C14.2051 24.8844 15.9345 25.68 17.6131 26.3115Z" fill="#D0935A"/>
</svg>

<svg width="107" height="99" fill="none" xmlns="http://www.w3.org/2000/svg"><path d="M104.053 61.077C97.386 84.289 79.04 99 53.423 99 27.808 99 9 76.581 9 50.942 9 25.304 53.938 14 79.555 14c25.617 0 32.011 20.923 24.498 47.077z" fill="#FFF3DB"/><path d="M78.36 63.75H67.733V47.812a14.626 14.626 0 00-14.609-14.609H39.771a5.958 5.958 0 00-.923-5.909v-.898a18.594 18.594 0 00-37.188 0v6.641a18.551 18.551 0 0011.442 17.168c.06.025.12.047.18.07v9.044l-6.564 8.65a6.812 6.812 0 00-4.062 6.232v1.502a1.328 1.328 0 001.328 1.328h9.297a1.329 1.329 0 001.028-.487l11.953-14.61c.194-.236.3-.534.3-.84v-.747a20.38 20.38 0 002.227 1.289l-4.806 6.335a6.842 6.842 0 00-4.061 6.23v1.502a1.328 1.328 0 001.328 1.328h9.297a1.327 1.327 0 001.037-.498L41.811 63.75h1.878l-.468 4.687a7.815 7.815 0 009.673 8.36l3.187-.796a8.265 8.265 0 006.372.68l5.83-1.748.233.351A3.923 3.923 0 0075.1 75.2l.057.085a3.924 3.924 0 007.187-2.176v-5.374a3.988 3.988 0 00-3.985-3.984zM65.077 47.812v2.036a7.963 7.963 0 00-13.281 5.933v5.313H49.14V35.859h3.984a11.966 11.966 0 0111.953 11.953zM4.316 33.038v-6.64A15.937 15.937 0 0136.16 25.4a5.947 5.947 0 00-1.96-.332h-.665v2.657h.664a3.32 3.32 0 110 6.64h-.664v2.657h.664c.519 0 1.035-.068 1.536-.202a15.94 15.94 0 01-16.62 12.114 15.915 15.915 0 01-14.8-15.897zm8.336 41.338h-7.34v-.174a4.155 4.155 0 012.705-3.893c.237-.088.444-.242.596-.443l7.054-9.297c.176-.23.27-.512.27-.802v-8.64a18.524 18.524 0 002.993.459c.07.005.142.007.213.01l.872 1.6a20.17 20.17 0 003.891 5.035v2.39L12.652 74.375zm27.192-12.419l-9.935 12.419h-7.33v-.174a4.17 4.17 0 012.705-3.893c.237-.088.443-.242.595-.443l7.054-9.296c.175-.232.27-.513.27-.803v-6.641h-2.656v6.194l-.116.154a17.566 17.566 0 01-8.083-7.55l-.212-.39c.278-.027.555-.06.827-.1A18.59 18.59 0 0038.632 35.86h7.852v25.235H42.5v-7.969h-2.656v8.831zm12.404 12.265a5.16 5.16 0 01-6.384-5.52l.494-4.951h5.439v5.004a8.235 8.235 0 001.79 5.132l-1.339.335zm19.532.154a1.27 1.27 0 01-.768-.26l1.963-.59a1.267 1.267 0 01-1.195.85zm7.907-1.267a1.267 1.267 0 01-2.321.703l-1.886-2.829a1.328 1.328 0 00-1.487-.535l-12.304 3.69a5.62 5.62 0 01-7.236-5.383V55.781a5.313 5.313 0 0110.625 0v9.297a1.328 1.328 0 001.328 1.328H78.36a1.33 1.33 0 011.329 1.328v5.374z" fill="#D0935A"/><path d="M9.629 35.693a2.656 2.656 0 100-5.312 2.656 2.656 0 000 5.312zm15.937 0a2.656 2.656 0 100-5.312 2.656 2.656 0 000 5.312zm-7.968 6.641a3.989 3.989 0 003.984-3.984h-2.656a1.328 1.328 0 11-2.656 0h-2.657a3.989 3.989 0 003.985 3.984zm.015-16.023a1.328 1.328 0 001.773-1.49l-.219-1.153a4.266 4.266 0 01.801-3.473 4.06 4.06 0 013.011-1.561l-.151-2.652a6.767 6.767 0 00-4.953 2.578 6.894 6.894 0 00-1.444 4.18 3.577 3.577 0 01-.939-1.195c-.63-1.244-.727-2.655-.253-3.681l-2.413-1.113c-.816 1.772-.706 4.012.296 5.993 1.083 2.14 2.813 2.936 4.491 3.567z" fill="#D0935A"/><path d="M104.053 61.077C97.386 84.289 79.04 99 53.423 99 27.808 99 9 76.581 9 50.942 9 25.304 53.938 14 79.555 14c25.617 0 32.011 20.923 24.498 47.077z" fill="#FFF3DB"/><path d="M78.36 63.75H67.733V47.812a14.626 14.626 0 00-14.609-14.609H39.771a5.958 5.958 0 00-.923-5.909v-.898a18.594 18.594 0 00-37.188 0v6.641a18.551 18.551 0 0011.442 17.168c.06.025.12.047.18.07v9.044l-6.564 8.65a6.812 6.812 0 00-4.062 6.232v1.502a1.328 1.328 0 001.328 1.328h9.297a1.329 1.329 0 001.028-.487l11.953-14.61c.194-.236.3-.534.3-.84v-.747a20.38 20.38 0 002.227 1.289l-4.806 6.335a6.842 6.842 0 00-4.061 6.23v1.502a1.328 1.328 0 001.328 1.328h9.297a1.327 1.327 0 001.037-.498L41.811 63.75h1.878l-.468 4.687a7.815 7.815 0 009.673 8.36l3.187-.796a8.265 8.265 0 006.372.68l5.83-1.748.233.351A3.923 3.923 0 0075.1 75.2l.057.085a3.924 3.924 0 007.187-2.176v-5.374a3.988 3.988 0 00-3.985-3.984zM65.077 47.812v2.036a7.963 7.963 0 00-13.281 5.933v5.313H49.14V35.859h3.984a11.966 11.966 0 0111.953 11.953zM4.316 33.038v-6.64A15.937 15.937 0 0136.16 25.4a5.947 5.947 0 00-1.96-.332h-.665v2.657h.664a3.32 3.32 0 110 6.64h-.664v2.657h.664c.519 0 1.035-.068 1.536-.202a15.94 15.94 0 01-16.62 12.114 15.915 15.915 0 01-14.8-15.897zm8.336 41.338h-7.34v-.174a4.155 4.155 0 012.705-3.893c.237-.088.444-.242.596-.443l7.054-9.297c.176-.23.27-.512.27-.802v-8.64a18.524 18.524 0 002.993.459c.07.005.142.007.213.01l.872 1.6a20.17 20.17 0 003.891 5.035v2.39L12.652 74.375zm27.192-12.419l-9.935 12.419h-7.33v-.174a4.17 4.17 0 012.705-3.893c.237-.088.443-.242.595-.443l7.054-9.296c.175-.232.27-.513.27-.803v-6.641h-2.656v6.194l-.116.154a17.566 17.566 0 01-8.083-7.55l-.212-.39c.278-.027.555-.06.827-.1A18.59 18.59 0 0038.632 35.86h7.852v25.235H42.5v-7.969h-2.656v8.831zm12.404 12.265a5.16 5.16 0 01-6.384-5.52l.494-4.951h5.439v5.004a8.235 8.235 0 001.79 5.132l-1.339.335zm19.532.154a1.27 1.27 0 01-.768-.26l1.963-.59a1.267 1.267 0 01-1.195.85zm7.907-1.267a1.267 1.267 0 01-2.321.703l-1.886-2.829a1.328 1.328 0 00-1.487-.535l-12.304 3.69a5.62 5.62 0 01-7.236-5.383V55.781a5.313 5.313 0 0110.625 0v9.297a1.328 1.328 0 001.328 1.328H78.36a1.33 1.33 0 011.329 1.328v5.374z" fill="#D0935A"/><path d="M9.629 35.693a2.656 2.656 0 100-5.312 2.656 2.656 0 000 5.312zm15.937 0a2.656 2.656 0 100-5.312 2.656 2.656 0 000 5.312zm-7.968 6.641a3.989 3.989 0 003.984-3.984h-2.656a1.328 1.328 0 11-2.656 0h-2.657a3.989 3.989 0 003.985 3.984zm.015-16.023a1.328 1.328 0 001.773-1.49l-.219-1.153a4.266 4.266 0 01.801-3.473 4.06 4.06 0 013.011-1.561l-.151-2.652a6.767 6.767 0 00-4.953 2.578 6.894 6.894 0 00-1.444 4.18 3.577 3.577 0 01-.939-1.195c-.63-1.244-.727-2.655-.253-3.681l-2.413-1.113c-.816 1.772-.706 4.012.296 5.993 1.083 2.14 2.813 2.936 4.491 3.567z" fill="#D0935A"/></svg>
